icons/sun.svg

<svg width="14" height="14" viewBox="0 0 14 14" fill="none"
    xmlns="http://www.w3.org/2000/svg">
    <circle cx="7" cy="7" r="1.5" stroke="red"/>
    <path d="M7 9.5C7.27614 9.5 7.5 9.72386 7.5 10V12C7.5 12.2761 7.27614 12.5 7 12.5C6.72386 12.5 6.5 12.2761 6.5 12V10C6.5 9.72386 6.72386 9.5 7 9.5ZM4.52539 8.76758C4.72067 8.57254 5.03724 8.57239 5.23242 8.76758C5.42761 8.96276 5.42746 9.27933 5.23242 9.47461L3.81836 10.8887C3.6231 11.0839 3.30659 11.0839 3.11133 10.8887C2.91607 10.6934 2.91607 10.3769 3.11133 10.1816L4.52539 8.76758ZM8.76758 8.76758C8.96276 8.57239 9.27933 8.57254 9.47461 8.76758L10.8887 10.1816C11.0839 10.3769 11.0839 10.6934 10.8887 10.8887C10.6934 11.0839 10.3769 11.0839 10.1816 10.8887L8.76758 9.47461C8.57254 9.27933 8.57239 8.96276 8.76758 8.76758ZM4 6.5C4.27614 6.5 4.5 6.72386 4.5 7C4.5 7.27614 4.27614 7.5 4 7.5H2C1.72386 7.5 1.5 7.27614 1.5 7C1.5 6.72386 1.72386 6.5 2 6.5H4ZM12 6.5C12.2761 6.5 12.5 6.72386 12.5 7C12.5 7.27614 12.2761 7.5 12 7.5H10C9.72386 7.5 9.5 7.27614 9.5 7C9.5 6.72386 9.72386 6.5 10 6.5H12ZM3.11133 3.11133C3.30659 2.91607 3.6231 2.91607 3.81836 3.11133L5.23242 4.52539C5.42746 4.72067 5.42761 5.03724 5.23242 5.23242C5.03724 5.42761 4.72067 5.42746 4.52539 5.23242L3.11133 3.81836C2.91607 3.6231 2.91607 3.30659 3.11133 3.11133ZM10.1816 3.11133C10.3769 2.91607 10.6934 2.91607 10.8887 3.11133C11.0839 3.30659 11.0839 3.6231 10.8887 3.81836L9.47461 5.23242C9.27933 5.42746 8.96276 5.42761 8.76758 5.23242C8.57239 5.03724 8.57254 4.72067 8.76758 4.52539L10.1816 3.11133ZM7 1.5C7.27614 1.5 7.5 1.72386 7.5 2V4C7.5 4.27614 7.27614 4.5 7 4.5C6.72386 4.5 6.5 4.27614 6.5 4V2C6.5 1.72386 6.72386 1.5 7 1.5Z" fill="green" />
</svg>

<svg xmlns="http://www.w3.org/2000/svg" width="14" height="14" fill="none" viewBox="0 0 14 14"><circle cx="7" cy="7" r="1.5" stroke="red"/><path fill="green" d="M7 9.5a.5.5 0 0 1 .5.5v2a.5.5 0 0 1-1 0v-2a.5.5 0 0 1 .5-.5m-2.475-.732a.5.5 0 0 1 .707.707l-1.414 1.414a.5.5 0 0 1-.707-.707zm4.243 0a.5.5 0 0 1 .707 0l1.414 1.414a.5.5 0 0 1-.707.707L8.768 9.475a.5.5 0 0 1 0-.707M4 6.5a.5.5 0 0 1 0 1H2a.5.5 0 0 1 0-1zm8 0a.5.5 0 0 1 0 1h-2a.5.5 0 0 1 0-1zM3.111 3.111a.5.5 0 0 1 .707 0l1.414 1.414a.5.5 0 0 1-.707.707L3.111 3.818a.5.5 0 0 1 0-.707m7.07 0a.5.5 0 0 1 .708.707L9.475 5.232a.5.5 0 0 1-.707-.707zM7 1.5a.5.5 0 0 1 .5.5v2a.5.5 0 0 1-1 0V2a.5.5 0 0 1 .5-.5"/></svg>
